svgs/duotone/circle-b.svg

<svg xmlns="http://www.w3.org/2000/svg" viewBox="0 0 512 512"><!--! Font Awesome Pro 6.6.0 by @fontawesome - https://fontawesome.com License - https://fontawesome.com/license (Commercial License) Copyright 2024 Fonticons, Inc. --><path class="fa-secondary" style="fill:var(--fa-secondary-color,inherit);opacity:var(--fa-secondary-opacity,.4);" d="M0 256a256 256 0 1 0 512 0A256 256 0 1 0 0 256zM160 152c0-13.3 10.7-24 24-24l92 0c42 0 76 34 76 76c0 16.2-5.1 31.3-13.8 43.7C356.3 261.6 368 283.4 368 308c0 42-34 76-76 76l-108 0c-13.3 0-24-10.7-24-24l0-104 0-104zm48 24l0 56 68 0c15.5 0 28-12.5 28-28s-12.5-28-28-28l-68 0zm0 104l0 56 84 0c15.5 0 28-12.5 28-28s-12.5-28-28-28l-16 0-68 0z"/><path class="fa-primary" style="fill:var(--fa-primary-color,inherit);opacity:var(--fa-primary-opacity,1);" d="M184 128c-13.3 0-24 10.7-24 24l0 104 0 104c0 13.3 10.7 24 24 24l108 0c42 0 76-34 76-76c0-24.6-11.7-46.4-29.8-60.3c8.7-12.4 13.8-27.4 13.8-43.7c0-42-34-76-76-76l-92 0zm92 104l-68 0 0-56 68 0c15.5 0 28 12.5 28 28s-12.5 28-28 28zm-68 48l68 0 16 0c15.5 0 28 12.5 28 28s-12.5 28-28 28l-84 0 0-56z"/></svg>

<svg xmlns="http://www.w3.org/2000/svg" viewBox="0 0 512 512"><!--! Font Awesome Pro 6.4.2 by @fontawesome - https://fontawesome.com License - https://fontawesome.com/license (Commercial License) Copyright 2023 Fonticons, Inc. --><path class="fa-primary" style="fill:var(--fa-primary-color,inherit);opacity:var(--fa-primary-opacity,1);" d="M184 128c-13.3 0-24 10.7-24 24V256 360c0 13.3 10.7 24 24 24H292c42 0 76-34 76-76c0-24.6-11.7-46.4-29.8-60.3c8.7-12.4 13.8-27.4 13.8-43.7c0-42-34-76-76-76H184zm92 104H208V176h68c15.5 0 28 12.5 28 28s-12.5 28-28 28zm-68 48h68 16c15.5 0 28 12.5 28 28s-12.5 28-28 28H208V280z"/><path class="fa-secondary" style="fill:var(--fa-secondary-color,inherit);opacity:var(--fa-secondary-opacity,.4);" d="M256 512A256 256 0 1 0 256 0a256 256 0 1 0 0 512zM160 152c0-13.3 10.7-24 24-24h92c42 0 76 34 76 76c0 16.2-5.1 31.3-13.8 43.7C356.3 261.6 368 283.4 368 308c0 42-34 76-76 76H184c-13.3 0-24-10.7-24-24V256 152zm144 52c0-15.5-12.5-28-28-28H208v56h68c15.5 0 28-12.5 28-28zM208 336h84c15.5 0 28-12.5 28-28s-12.5-28-28-28H276 208v56z"/></svg>
